X:1
T:Standing on the Hilltop
T:Henry Lake Gilmour
T:Standing on the Hilltop
T:Public Domain
T:Public Domain
T:Public Domain
C:Henry Lake Gilmour
Z:Public Domain
%%score ( 1 2 ) ( 3 4 )
L:1/8
M:4/4
K:Ab
V:1 treble 
V:2 treble 
V:3 bass 
V:4 bass 
V:1
 EE | [EA]>[EA] [EA][EA] [Ec][CA][DG][EA] | [DB]2 [DF][DG] [CE]2 EE | %3
w: 1.~I have|sor- row’s val- ley, and thro’ sin’s dark-|est night; I am stand- ing|
w: 2.~My dear|has gone o- ver to pre- pare me|a place; I am stand- ing|
w: 3.~If old|waves a- round me roll, I shall have|no fear; I am stand- ing|
w: 4.~I will|eyes in glad- ness, to be- hold Heav-|en’s land; I am stand- ing|
w: 5.~O my|from the wild- er- ness, look up and|be- hold; I am stand- ing|
 [Gd]>[Gd] [Ec][DB] [CA][CA] [=DG]<[DA] | [DB]6 EE | [EA]>[EA] [EA][EA] [Ec][CA][DG][EA] | %6
w: hill- top look- ing home; And my soul|is full of|for I’m liv- ing in the light, I|
w: hill- top look- ing home; In the glo-|ry of His|with my loved ones saved by grace, I|
w: hill- top look- ing home; I will trust|a- lone in|who has prom- ised to be near; I|
w: hill- top look- ing home; And my faith|be- comes tri-|for the vi- sion is so grand; I|
w: hill- top look- ing home; Now a man-|sion bright, a|throne, and streets of shin- ing gold, I|
 [DB][DB][Fc][Fc] [Fd]2 [A=d][Ad] | [Ae]>[Ae] [Ae][Gd] [Ac][EA] [EG]<[EB] | [EA]6 ||"^Refrain" AA | %10
w: am stand- ing on the hill- top|look- ing home. * * * * *|||
w: am stand- ing on the hill- top|look- ing home. I am stand- ing on|the|hill- top|
w: am stand- ing on the hill- top|look- ing home. * * * * *|||
w: am stand- ing on the hill- top|look- ing home. * * * * *|||
w: am stand- ing on the hill- top|look- ing home. * * * * *|||
 [Ad]>[Ad] [Ad][Ad] [Ad][Af] [Ae]<[Ad] | [Ac]6 [Ec][Ec] | [A=d]>[Ad] [Ad][Ad] [Ad][AB][Ac][Ad] | %13
w: |||
w: home; And I catch a glimpse of min-|a- ret and|dome; Hear- ing sweet ce- les- tial strains,|
w: |||
w: |||
w: |||
 ([G-e]2 [GB][Ac] [Gd]2) [Ec][EB] | [EA]>[EA] [Ec][Fd] [_Ge]2 [Gc][Gc] | %15
w: ||
w: Where * * * my Lord|in glo- ry reigns, I am stand-|
w: ||
w: ||
w: ||
 [FA]>[FB] [FB][Fc] [Fd]2 [Af][Af] | [Ae]>[Ae] [Ae][Gd] [Ac][EA] [EG]<[EB] | [EA]6 |] %18
w: |||
w: ing on the hill- top look- ing|home. * * * * * * *||
w: |||
w: |||
w: |||
V:2
 EE | x8 | x6 EE | x8 | x6 EE | x8 | x8 | x8 | x6 || AA | x8 | x8 | x8 | x8 | x8 | x8 | x8 | x6 |] %18
w: come thro’||on the||glo- ry,||||||||||||||
w: Sav- ior||on the||pre- sence,|||||look- ing|||||||||
w: Jor- dan’s||on the||Je- sus,||||||||||||||
w: lift mine||on the||umph- ant,||||||||||||||
w: bro- ther||on the||great white||||||||||||||
V:3
 E,E, | [A,,C]>[A,,C] [A,,C][A,,C] [A,,A,][A,,E,][B,,E,][C,E,] | %2
w: ~ ~|~ ~ ~ ~ ~ ~ ~ ~|
 [D,F,]2 [D,A,][D,A,] [A,,A,]2 [A,,C][A,,C] | %3
w: ~ ~ ~ ~ ~ ~|
 [E,B,]>[E,B,] [E,A,][E,G,] [F,A,][F,A,] [B,,B,]<[B,,B,] | [E,G,]6 [E,G,][E,G,] | %5
w: ~ ~ ~ ~ ~ ~ ~ ~|~ ~ ~|
 [A,,C]>[A,,C] [A,,C][A,,C] [A,,A,][A,,E,][B,,E,][C,E,] | %6
w: ~ ~ ~ ~ ~ ~ ~ ~|
 [D,F,][D,B,][C,=A,][C,A,] [B,,B,]2 [F,=B,][F,B,] | %7
w: ~ ~ ~ ~ ~ ~ ~|
 [E,C]>[E,C] [E,C][E,E] [A,E][A,C] [E,B,]<[E,D] | [A,,C]6 || [A,C][A,C] | %10
w: ~ ~ ~ ~ ~ ~ ~ ~|~|~ ~|
 [D,F]>[D,F] [D,F][D,F] [F,D][F,D] [D,F]<[D,F] | A,2 C,E, A,2 [A,C][A,C] | %12
w: ~ ~ ~ ~ ~ ~ ~ look-|ing home, * * * *|
 [F,B,]>[F,B,] [F,B,][F,F] [B,F][B,=D][B,C]B, | (B,2 DC [E,B,]2) [E,C][E,D] | %14
w: ||
 [A,C]>[A,C] A,A, [A,C]2 [A,E][A,E] | [D,D]>[D,D] [D,B,][C,=A,] [B,,B,]2 [=D,=B,][D,B,] | %16
w: ||
 [E,C]>[E,C] [E,C][E,E] [A,E][A,C] [E,B,]<[E,D] | [A,,C]6 |] %18
w: ||
V:4
 E,E, | x8 | x8 | x8 | x8 | x8 | x8 | x8 | x6 || x2 | x8 | E6 x2 | x7 B, | E,4- x4 | x2 A,A, x4 | %15
w: ~ ~|||||||||||||||
 x8 | x8 | x6 |] %18
w: |||

